contributed-vectors/my_prayer.svg

<svg xmlns="http://www.w3.org/2000/svg" xml:space="preserve" style="fill-rule:evenodd;clip-rule:evenodd;stroke-linecap:round;stroke-linejoin:round;stroke-miterlimit:1.5" viewBox="0 0 192 192"><circle cx="88" cy="88" r="88" style="fill:#f9de81" transform="translate(10 10)"/><path d="M131.538 16.627C163.493 29.828 186 61.306 186 98c0 36.392-22.139 67.655-53.666 81.04-31.956-13.202-54.462-44.68-54.462-81.374 0-36.392 22.139-67.654 53.666-81.039Z" style="fill:#fdf5d9"/><path d="M86.058 80.714a.837.837 0 0 0-.836-.836h-1.67a.836.836 0 0 0-.835.836v1.67c0 .461.374.835.835.835h1.67a.836.836 0 0 0 .836-.835v-1.67Z" style="fill:#83868c" transform="rotate(45 84.737 81.212)"/><path d="M86.058 80.714a.837.837 0 0 0-.836-.836h-1.67a.836.836 0 0 0-.835.836v1.67c0 .461.374.835.835.835h1.67a.836.836 0 0 0 .836-.835v-1.67Z" style="fill:#83868c" transform="rotate(45 24.151 51.946)"/><path d="M86.058 80.714a.837.837 0 0 0-.836-.836h-1.67a.836.836 0 0 0-.835.836v1.67c0 .461.374.835.835.835h1.67a.836.836 0 0 0 .836-.835v-1.67Z" style="fill:#83868c" transform="rotate(45 87.899 88.846)"/><path d="M86.058 80.714a.837.837 0 0 0-.836-.836h-1.67a.836.836 0 0 0-.835.836v1.67c0 .461.374.835.835.835h1.67a.836.836 0 0 0 .836-.835v-1.67Z" style="fill:#83868c" transform="rotate(45 27.313 59.58)"/><path d="M39.64 88.175c-11.593-.497-14.292 14.964-3.881 18.994h26.532s5.634-1.994-.187-9.169c-5.821-7.175 6.648-20.533 15.231 9.169h13.54s2.127-.616 1.903-2.669c-.224-2.052-1.232-13.508-1.232-13.508M102.062 107.539s16.279 1.195 16.093-11.539c-.187-12.734 0-16.122 0-16.122" style="fill:none;stroke:#83868c;stroke-width:2.64px"/><path d="M134.62 92.473v10.215s.234 4.481-3.778 4.481h-7.51s-5.176-.431-5.176-7.381l-.007-4.224" style="fill:none;stroke:#83868c;stroke-width:2.64px"/><path d="M134.623 102.918c0 2.865 1.611 4.251 4.475 4.251h20.897s6.67.37 6.67-9.169-5.595-9.836-6.621-9.836c-1.026 0-7.932-1.429-21.365 18.302M110.377 99.32l-9.431-14.686" style="fill:none;stroke:#83868c;stroke-width:2.64px"/></svg>

<?xml version="1.0" encoding="UTF-8" standalone="no"?>
<!DOCTYPE svg PUBLIC "-//W3C//DTD SVG 1.1//EN" "http://www.w3.org/Graphics/SVG/1.1/DTD/svg11.dtd">
<svg width="100%" height="100%" viewBox="0 0 192 192" version="1.1" xmlns="http://www.w3.org/2000/svg" xmlns:xlink="http://www.w3.org/1999/xlink" xml:space="preserve" xmlns:serif="http://www.serif.com/" style="fill-rule:evenodd;clip-rule:evenodd;stroke-linecap:round;stroke-linejoin:round;stroke-miterlimit:1.5;">
    <g id="Layer1" transform="matrix(1,0,0,1,2,2)">
        <g transform="matrix(1,0,0,1,8,8)">
            <circle cx="88" cy="88" r="88" style="fill:rgb(249,222,129);"/>
        </g>
        <g transform="matrix(1,0,0,1,-2,-2)">
            <path d="M131.538,16.627C163.493,29.828 186,61.306 186,98C186,134.392 163.861,165.655 132.334,179.04C100.378,165.838 77.872,134.36 77.872,97.666C77.872,61.274 100.011,30.012 131.538,16.627Z" style="fill:rgb(253,245,217);"/>
        </g>
        <g transform="matrix(0.707107,0.707107,-0.707107,0.707107,80.2446,-38.1315)">
            <path d="M86.058,80.714C86.058,80.253 85.683,79.878 85.222,79.878L83.552,79.878C83.091,79.878 82.717,80.253 82.717,80.714L82.717,82.384C82.717,82.845 83.091,83.219 83.552,83.219L85.222,83.219C85.683,83.219 86.058,82.845 86.058,82.384L86.058,80.714Z" style="fill:rgb(131,134,140);"/>
        </g>
        <g transform="matrix(0.707107,0.707107,-0.707107,0.707107,41.8054,-3.8629)">
            <path d="M86.058,80.714C86.058,80.253 85.683,79.878 85.222,79.878L83.552,79.878C83.091,79.878 82.717,80.253 82.717,80.714L82.717,82.384C82.717,82.845 83.091,83.219 83.552,83.219L85.222,83.219C85.683,83.219 86.058,82.845 86.058,82.384L86.058,80.714Z" style="fill:rgb(131,134,140);"/>
        </g>
        <g transform="matrix(0.707107,0.707107,-0.707107,0.707107,86.5686,-38.1315)">
            <path d="M86.058,80.714C86.058,80.253 85.683,79.878 85.222,79.878L83.552,79.878C83.091,79.878 82.717,80.253 82.717,80.714L82.717,82.384C82.717,82.845 83.091,83.219 83.552,83.219L85.222,83.219C85.683,83.219 86.058,82.845 86.058,82.384L86.058,80.714Z" style="fill:rgb(131,134,140);"/>
        </g>
        <g transform="matrix(0.707107,0.707107,-0.707107,0.707107,48.1293,-3.8629)">
            <path d="M86.058,80.714C86.058,80.253 85.683,79.878 85.222,79.878L83.552,79.878C83.091,79.878 82.717,80.253 82.717,80.714L82.717,82.384C82.717,82.845 83.091,83.219 83.552,83.219L85.222,83.219C85.683,83.219 86.058,82.845 86.058,82.384L86.058,80.714Z" style="fill:rgb(131,134,140);"/>
        </g>
        <g transform="matrix(1,0,0,1,-2,-2)">
            <path d="M39.64,88.175C28.047,87.678 25.348,103.139 35.759,107.169L62.291,107.169C62.291,107.169 67.925,105.175 62.104,98C56.283,90.825 68.752,77.467 77.335,107.169L90.875,107.169C90.875,107.169 93.002,106.553 92.778,104.5C92.554,102.448 91.546,90.992 91.546,90.992" style="fill:none;stroke:rgb(131,134,140);stroke-width:2.64px;"/>
        </g>
        <g transform="matrix(1,0,0,1,-2,-2)">
            <path d="M102.062,107.539C102.062,107.539 118.341,108.734 118.155,96C117.968,83.266 118.155,79.878 118.155,79.878" style="fill:none;stroke:rgb(131,134,140);stroke-width:2.64px;"/>
        </g>
        <g transform="matrix(1,0,0,1,-2,-2)">
            <path d="M134.62,92.473L134.62,102.688C134.62,102.688 134.854,107.169 130.842,107.169L123.332,107.169C123.332,107.169 118.156,106.738 118.156,99.788L118.149,95.564" style="fill:none;stroke:rgb(131,134,140);stroke-width:2.64px;"/>
        </g>
        <g transform="matrix(1,0,0,1,-2,-2)">
            <path d="M134.623,102.918C134.623,105.783 136.234,107.169 139.098,107.169L159.995,107.169C159.995,107.169 166.665,107.539 166.665,98C166.665,88.461 161.07,88.164 160.044,88.164C159.018,88.164 152.112,86.735 138.679,106.466" style="fill:none;stroke:rgb(131,134,140);stroke-width:2.64px;"/>
        </g>
        <g transform="matrix(1,0,0,1,-2,-2)">
            <path d="M110.377,99.32L100.946,84.634" style="fill:none;stroke:rgb(131,134,140);stroke-width:2.64px;"/>
        </g>
    </g>
</svg>
